T: Humours Of Glynn, The
M: 6/8
L: 1/8
K: Dmaj
|: A | def A3 | D3 AFA | def A3| DFA B2A |
def A3 | D3 AFF | Gc/A/G Fc/A/F | EFA B2 :|
|: A | dfd fdB | cec ecA | dfd fdB | AFA B2A |
[1 dg/f/d fdB | cg/f/c ecA | dg/f/d fdB | EFA B2 :|
[2 dg/f/d cg/f/c | Bg/f/B Ag/f/A | dcB AGF | EFA B2 ||
